img/linkedin.svg

<svg fill="none" height="30" viewBox="0 0 30 30" width="30" xmlns="http://www.w3.org/2000/svg" xmlns:xlink="http://www.w3.org/1999/xlink"><clipPath id="a"><path d="m0 0h30v30h-30z"/></clipPath><g clip-path="url(#a)"><path clip-rule="evenodd" d="m9.99805 3c-3.859 0-6.99805 3.14195-6.99805 7.002v10c0 3.859 3.14195 6.998 7.002 6.998h10c3.859 0 6.998-3.142 6.998-7.002v-9.99995c0-3.859-3.142-6.99805-7.002-6.99805zm-2.26905 6.43091c0 .94899.769 1.71999 1.72 1.71999.948 0 1.719-.771 1.719-1.71999 0-.948-.771-1.719-1.719-1.719-.95 0-1.72.77-1.72 1.719zm.275 12.56899h2.95v-9.492h-2.95zm14.0002.0001h-2.948v-4.616c0-1.101-.02-2.517-1.533-2.517-1.535 0-1.771 1.199-1.771 2.437v4.696h-2.948v-9.492h2.83v1.297h.04c.394-.746 1.356-1.533 2.791-1.533 2.987 0 3.539 1.966 3.539 4.522z" fill="#000" fill-rule="evenodd"/></g></svg>

<svg width="30" height="30" viewBox="0 0 30 30" fill="none" xmlns="http://www.w3.org/2000/svg">
<g clip-path="url(#clip0_263_6)">
<path fill-rule="evenodd" clip-rule="evenodd" d="M9.99805 3C6.13905 3 3 6.14195 3 10.002V20.002C3 23.861 6.14195 27 10.002 27H20.002C23.861 27 27 23.858 27 19.998V9.99805C27 6.13905 23.858 3 19.998 3H9.99805ZM7.729 9.43091C7.729 10.3799 8.498 11.1509 9.449 11.1509C10.397 11.1509 11.168 10.3799 11.168 9.43091C11.168 8.48291 10.397 7.71191 9.449 7.71191C8.499 7.71191 7.729 8.48191 7.729 9.43091ZM8.004 21.9999H10.954V12.5079H8.004V21.9999ZM22.0042 22H19.0562V17.384C19.0562 16.283 19.0362 14.867 17.5232 14.867C15.9882 14.867 15.7522 16.066 15.7522 17.304V22H12.8042V12.508H15.6342V13.805H15.6742C16.0682 13.059 17.0302 12.272 18.4652 12.272C21.4522 12.272 22.0042 14.238 22.0042 16.794V22Z" fill="black"/>
</g>
<defs>
<clipPath id="clip0_263_6">
<rect width="30" height="30" fill="white"/>
</clipPath>
</defs>
</svg>
